X:30
T:Kine Caldrum's Reel
S:Petrie's Third Collection of Strathspey Reels and Country Dances &c.
Z:Steve Wyrick , 7/30/05
N:Petrie's Third Collection, page 13
L:1/8
M:C
R:Reel
K:G
f|g2 dc B2 AG|FGAB cAAf|g2 dc B2 AG|FdAc BGG::B|
(DG)(BG) (DG)(BG)|(DG)(BG) cAAB|cdef gedc|BdAc BGG:|]
